Origami/64x64/apps/element4l.svg

<svg width="64" height="64" version="1" xmlns="http://www.w3.org/2000/svg">
 <path d="m4 56v2c0 1.662 1.338 3 3 3h50c1.662 0 3-1.338 3-3v-2c0 1.662-1.338 3-3 3h-50c-1.662 0-3-1.338-3-3z" style="opacity:.2"/>
 <rect transform="matrix(0,-1,-1,0,0,0)" x="-60" y="-60" width="56" height="56" rx="3" ry="3" style="fill:#81dbf9"/>
 <path d="m7 4c-1.662 0-3 1.338-3 3v1c0-1.662 1.338-3 3-3h50c1.662 0 3 1.338 3 3v-1c0-1.662-1.338-3-3-3h-50z" style="fill:#ffffff;opacity:.1"/>
 <circle cx="12" cy="30" r="6" style="fill:#2a6c87"/>
 <circle cx="48" cy="30" r="6" style="fill:#2a6c87"/>
 <path d="m41 37.182c0 2.661-4.701 4.818-10.5 4.818s-10.5-2.15685-10.5-4.81755 4.701 0 10.5 0 10.5-2.6607 10.5 0z" style="fill:#2a6c87"/>
 <circle cx="14.5" cy="28.5" r="1.5" style="fill:#ffffff"/>
 <circle cx="50.5" cy="28.5" r="1.5" style="fill:#ffffff"/>
</svg>

<svg xmlns="http://www.w3.org/2000/svg" width="64" height="64" version="1">
 <path style="opacity:0.2" d="m 4,56 0,2 c 0,1.662 1.338,3 3,3 l 50,0 c 1.662,0 3,-1.338 3,-3 l 0,-2 c 0,1.662 -1.338,3 -3,3 L 7,59 C 5.338,59 4,57.662 4,56 Z"/>
 <rect style="fill:#81dbf9" width="56" height="56" x="-60" y="-60" rx="3" ry="3" transform="matrix(0,-1,-1,0,0,0)"/>
 <path style="opacity:0.1;fill:#ffffff" d="M 7 4 C 5.338 4 4 5.338 4 7 L 4 8 C 4 6.338 5.338 5 7 5 L 57 5 C 58.662 5 60 6.338 60 8 L 60 7 C 60 5.338 58.662 4 57 4 L 7 4 z"/>
 <circle style="fill:#2a6c87" cx="12" cy="30" r="6"/>
 <circle style="fill:#2a6c87" cx="48" cy="30" r="6"/>
 <path style="fill:#2a6c87" d="M 41,37.182 C 41,39.843 36.299,42 30.5,42 24.701,42 20,39.84315 20,37.18245 c 0,-2.6607 4.701,0 10.5,0 5.799,0 10.5,-2.6607 10.5,0 z"/>
 <circle style="fill:#ffffff" cx="14.5" cy="28.5" r="1.5"/>
 <circle style="fill:#ffffff" cx="50.5" cy="28.5" r="1.5"/>
</svg>
